!!!OTL: Granite Mill
!!!ONM: 118.
**kern
*clefG2
*k[f#c#]
*D:
*M6/8
*>[A,A]
*>norep[A]
*>A
=!|:
*MM92
{8f#
=1
4d
(16d
16e)
4f#
8d
=2
4B
8A}
{4d
8e
=3
8f#
8f#
8B
4d
8e
=4
4.f#
4r}
{16f#
16g
=5
4a
8a
4a
8f#
=6
4g
8f#
4d}
{8e
=7
4f#
8g
4f#
8e
=8
4.d
4r}
==:|!
*-
!!!CNT: Folksongs of Maritime Canada
!!!MRD: 1928///-1932///
!!!OCL: Helen Creighton
!!!YOR: Songs and Ballads from Nova Scotia
!!!PPR: J.M. Dent & Sons, Limited
!!!PPP: Toronto, Canada
!!!PDT: 1932///
!!!reprint: Dover Publications, 1992: ISBN 0-486-21703-5
!!!ENC1: Craig Stuart Sapp (music and bibliographic data)                       
!!!ENC2: Marcus Pearce (phrase markings and key designations)                   
!!!ENC3: Darrell Conklin (phrase markings and key designations)   
!!!END: 2002/04/10/
!!!EEV: 2004/06/05
!!!MPN: Mr. Tom Henneberry
!!!PPG: 257
!!!EFL: 119/152
!!!ARE: Canada; Nova Scotia
!!!verses: 5
!!!VTS: 3763664634
